Papirus/64x64/apps/app-outlet.svg

<svg xmlns="http://www.w3.org/2000/svg" height="64" width="64" version="1.1">
 <rect style="opacity:.2" rx="3" ry="3" height="56" width="56" y="5" x="4"/>
 <rect style="fill:#6c4ac4" rx="3" ry="3" height="56" width="56" y="4" x="4"/>
 <path d="m13 13-3 36s0 3 3 3h38c3 0 3-3 3-3l-3-36z" style="opacity:.2"/>
 <path d="m13 12-3 36s0 3 3 3h38c3 0 3-3 3-3l-3-36z" style="fill:#e4e4e4"/>
 <path style="opacity:.2" d="m22.5 20a3.5 3.5 0 0 0 -3.5 3.5 3.5 3.5 0 0 0 3.5 3.5 3.5 3.5 0 0 0 3.5 -3.5 3.5 3.5 0 0 0 -3.5 -3.5zm19 0a3.5 3.5 0 0 0 -3.5 3.5 3.5 3.5 0 0 0 3.5 3.5 3.5 3.5 0 0 0 3.5 -3.5 3.5 3.5 0 0 0 -3.5 -3.5z"/>
 <path style="fill:#cccccc" d="m22.5 19a3.5 3.5 0 0 0 -3.5 3.5 3.5 3.5 0 0 0 3.5 3.5 3.5 3.5 0 0 0 3.5 -3.5 3.5 3.5 0 0 0 -3.5 -3.5zm19 0a3.5 3.5 0 0 0 -3.5 3.5 3.5 3.5 0 0 0 3.5 3.5 3.5 3.5 0 0 0 3.5 -3.5 3.5 3.5 0 0 0 -3.5 -3.5z"/>
 <path style="opacity:.2" d="m22.499174 22.021755a1.4997884 1.4961014 0 0 0 -1.491829 1.643988s0.275427 3.423658 1.704668 6.920725c0.71462 1.748534 1.721646 3.551143 3.227737 4.976767 1.506091 1.425623 3.57278 2.436765 6.059086 2.436765s4.552995-1.011142 6.059086-2.436765c1.506091-1.425624 2.513117-3.228233 3.227737-4.976767 1.429241-3.497067 1.704668-6.920725 1.704668-6.920725a1.4997884 1.4961014 0 1 0 -2.987562 -0.253221s-0.27366 3.0588-1.49378 6.044191c-0.61006 1.492695-1.452978 2.931315-2.515018 3.936612-1.062041 1.005299-2.282449 1.614771-3.995131 1.614771s-2.93309-0.609472-3.995131-1.614771c-1.06204-1.005297-1.904958-2.443917-2.515018-3.936612-1.22012-2.985391-1.49378-6.044191-1.49378-6.044191a1.4997884 1.4961014 0 0 0 -1.495733 -1.390767z"/>
 <path style="fill:#6c4ac4" d="m22.499174 21.021755a1.4997884 1.4961014 0 0 0 -1.491829 1.643988s0.275427 3.423658 1.704668 6.920725c0.71462 1.748534 1.721646 3.551143 3.227737 4.976767 1.506091 1.425623 3.57278 2.436765 6.059086 2.436765s4.552995-1.011142 6.059086-2.436765c1.506091-1.425624 2.513117-3.228233 3.227737-4.976767 1.429241-3.497067 1.704668-6.920725 1.704668-6.920725a1.4997884 1.4961014 0 1 0 -2.987562 -0.253221s-0.27366 3.0588-1.49378 6.044191c-0.61006 1.492695-1.452978 2.931315-2.515018 3.936612-1.062041 1.005299-2.282449 1.614771-3.995131 1.614771s-2.93309-0.609472-3.995131-1.614771c-1.06204-1.005297-1.904958-2.443917-2.515018-3.936612-1.22012-2.985391-1.49378-6.044191-1.49378-6.044191a1.4997884 1.4961014 0 0 0 -1.495733 -1.390767z"/>
 <path style="opacity:.2;fill:#ffffff" d="m7 4c-1.662 0-3 1.338-3 3v1c0-1.662 1.338-3 3-3h50c1.662 0 3 1.338 3 3v-1c0-1.662-1.338-3-3-3h-50z"/>
 <path style="opacity:.2;fill:#ffffff" d="m13 12l-3 36s0.002046 0.187475 0.044922 0.455078l2.955078-35.455078h38l2.955078 35.455078c0.042876-0.267603 0.044922-0.455078 0.044922-0.455078l-3-36h-38z"/>
</svg>

<?xml version="1.0" encoding="UTF-8" standalone="no"?>
<svg
   id="_图层_1"
   version="1.1"
   viewBox="0 0 64 64" width="64" height="64"
   sodipodi:docname="app-outlet.svg"
   xml:space="preserve"
   inkscape:version="1.4 (e7c3feb100, 2024-10-09)"
   xmlns:inkscape="http://www.inkscape.org/namespaces/inkscape"
   xmlns:sodipodi="http://sodipodi.sourceforge.net/DTD/sodipodi-0.dtd"
   xmlns="http://www.w3.org/2000/svg"
   xmlns:svg="http://www.w3.org/2000/svg"><sodipodi:namedview
     id="namedview26"
     pagecolor="#505050"
     bordercolor="#eeeeee"
     borderopacity="1"
     inkscape:showpageshadow="0"
     inkscape:pageopacity="0"
     inkscape:pagecheckerboard="0"
     inkscape:deskcolor="#505050"
     inkscape:zoom="10.6875"
     inkscape:cx="44.25731"
     inkscape:cy="39.48538"
     inkscape:window-width="1920"
     inkscape:window-height="939"
     inkscape:window-x="0"
     inkscape:window-y="34"
     inkscape:window-maximized="1"
     inkscape:current-layer="_图层_1" /><!-- Generator: Adobe Illustrator 29.0.1, SVG Export Plug-In . SVG Version: 2.1.0 Build 192)  --><defs
     id="defs6"><inkscape:path-effect
       effect="fillet_chamfer"
       id="path-effect26"
       is_visible="true"
       lpeversion="1"
       nodesatellites_param="F,0,0,1,0,0,0,1 @ F,0,0,1,0,0,0,1 @ F,0,0,1,0,0,0,1 @ F,0,0,1,0,0,0,1 @ F,0,0,1,0,0,0,1 @ F,0,0,1,0,0,0,1"
       radius="0"
       unit="px"
       method="auto"
       mode="F"
       chamfer_steps="1"
       flexible="false"
       use_knot_distance="true"
       apply_no_radius="true"
       apply_with_radius="true"
       only_selected="false"
       hide_knots="false" /><style
       id="style1">
      .st0 {
        fill-opacity: .5;
      }

      .st0, .st1, .st2, .st3, .st4, .st5, .st6, .st7 {
        fill: #fff;
      }

      .st8 {
        fill: #133c9a;
      }

      .st2, .st9 {
        display: none;
      }

      .st3 {
        fill-opacity: .2;
      }

      .st4 {
        fill-opacity: .9;
      }

      .st10 {
        fill: #3370ff;
      }

      .st11 {
        fill: url(#_未命名的渐变_3);
      }

      .st12 {
        fill: url(#_未命名的渐变);
      }

      .st5 {
        fill-opacity: .3;
      }

      .st6 {
        fill-opacity: 0;
      }

      .st7 {
        fill-opacity: .7;
      }

      .st13 {
        fill: #00d6b9;
      }

      .st14 {
        fill: url(#_未命名的渐变_2);
      }
    </style><radialGradient
       id="_未命名的渐变"
       data-name="未命名的渐变"
       cx="123.9"
       cy="-40.2"
       fx="123.9"
       fy="-40.2"
       r="59.4"
       gradientTransform="translate(-26.8 25.5) scale(.6 -.7)"
       gradientUnits="userSpaceOnUse"><stop
         offset="0"
         stop-color="#db202e"
         id="stop1" /><stop
         offset="1"
         stop-color="#e01b24"
         id="stop2" /></radialGradient><radialGradient
       id="_未命名的渐变_2"
       data-name="未命名的渐变 2"
       cx="67.6"
       cy="26.8"
       fx="67.6"
       fy="26.8"
       r="105.2"
       gradientTransform="translate(-26.6 25.3) scale(.6 -.7)"
       gradientUnits="userSpaceOnUse"><stop
         offset="0"
         stop-color="#ffb648"
         id="stop3" /><stop
         offset="1"
         stop-color="#ff7800"
         stop-opacity="0"
         id="stop4" /></radialGradient><radialGradient
       id="_未命名的渐变_3"
       data-name="未命名的渐变 3"
       cx="61.7"
       cy="18.6"
       fx="61.7"
       fy="18.6"
       r="68"
       gradientTransform="translate(-26.8 25.8) scale(.6 -.7)"
       gradientUnits="userSpaceOnUse"><stop
         offset="0"
         stop-color="#c64600"
         id="stop5" /><stop
         offset="1"
         stop-color="#a51d2d"
         id="stop6" /></radialGradient></defs><path
     class="st1"
     d="M 47.5,64.1 H 13.8 C 6.2,64.1 0,57.8 0,50.3 V 13.7 C 0,6.2 6.2,0 13.7,0 H 50.3 C 57.8,0 64,6.2 64,13.7 V 50.3 C 64,57.8 57.8,64 50.3,64 h -2.9 0.1 z"
     id="path6"
     style="display:inline;fill:#6c4ac4;fill-opacity:1" /><g
     id="g26"
     transform="matrix(1.1436926,0,0,1.1444547,-4.5747703,-4.4462399)"><path
       d="m 13,13 -3,36 c 0,0 0,3 3,3 h 38 c 3,0 3,-3 3,-3 L 51,13 Z"
       style="opacity:0.2"
       id="path2" /><path
       d="m 13,12 -3,36 c 0,0 0,3 3,3 h 38 c 3,0 3,-3 3,-3 L 51,12 Z"
       style="fill:#e4e4e4"
       id="path3" /><path
       style="opacity:0.2"
       d="M 22.5,20 A 3.5,3.5 0 0 0 19,23.5 3.5,3.5 0 0 0 22.5,27 3.5,3.5 0 0 0 26,23.5 3.5,3.5 0 0 0 22.5,20 Z m 19,0 A 3.5,3.5 0 0 0 38,23.5 3.5,3.5 0 0 0 41.5,27 3.5,3.5 0 0 0 45,23.5 3.5,3.5 0 0 0 41.5,20 Z"
       id="path4" /><path
       style="fill:#cccccc"
       d="M 22.5,19 A 3.5,3.5 0 0 0 19,22.5 3.5,3.5 0 0 0 22.5,26 3.5,3.5 0 0 0 26,22.5 3.5,3.5 0 0 0 22.5,19 Z m 19,0 A 3.5,3.5 0 0 0 38,22.5 3.5,3.5 0 0 0 41.5,26 3.5,3.5 0 0 0 45,22.5 3.5,3.5 0 0 0 41.5,19 Z"
       id="path5" /><path
       style="opacity:0.2"
       d="m 22.499174,22.021755 a 1.4997884,1.4961014 0 0 0 -1.491829,1.643988 c 0,0 0.275427,3.423658 1.704668,6.920725 0.71462,1.748534 1.721646,3.551143 3.227737,4.976767 C 27.445841,36.988858 29.51253,38 31.998836,38 c 2.486306,0 4.552995,-1.011142 6.059086,-2.436765 1.506091,-1.425624 2.513117,-3.228233 3.227737,-4.976767 1.429241,-3.497067 1.704668,-6.920725 1.704668,-6.920725 a 1.4997884,1.4961014 0 1 0 -2.987562,-0.253221 c 0,0 -0.27366,3.0588 -1.49378,6.044191 -0.61006,1.492695 -1.452978,2.931315 -2.515018,3.936612 -1.062041,1.005299 -2.282449,1.614771 -3.995131,1.614771 -1.712682,0 -2.93309,-0.609472 -3.995131,-1.614771 -1.06204,-1.005297 -1.904958,-2.443917 -2.515018,-3.936612 -1.22012,-2.985391 -1.49378,-6.044191 -1.49378,-6.044191 a 1.4997884,1.4961014 0 0 0 -1.495733,-1.390767 z"
       id="path6-0" /><path
       style="fill:#6c4ac4"
       d="m 22.499174,21.021755 a 1.4997884,1.4961014 0 0 0 -1.491829,1.643988 c 0,0 0.275427,3.423658 1.704668,6.920725 0.71462,1.748534 1.721646,3.551143 3.227737,4.976767 C 27.445841,35.988858 29.51253,37 31.998836,37 c 2.486306,0 4.552995,-1.011142 6.059086,-2.436765 1.506091,-1.425624 2.513117,-3.228233 3.227737,-4.976767 1.429241,-3.497067 1.704668,-6.920725 1.704668,-6.920725 a 1.4997884,1.4961014 0 1 0 -2.987562,-0.253221 c 0,0 -0.27366,3.0588 -1.49378,6.044191 -0.61006,1.492695 -1.452978,2.931315 -2.515018,3.936612 -1.062041,1.005299 -2.282449,1.614771 -3.995131,1.614771 -1.712682,0 -2.93309,-0.609472 -3.995131,-1.614771 -1.06204,-1.005297 -1.904958,-2.443917 -2.515018,-3.936612 -1.22012,-2.985391 -1.49378,-6.044191 -1.49378,-6.044191 a 1.4997884,1.4961014 0 0 0 -1.495733,-1.390767 z"
       id="path7" /><path
       style="opacity:0.2;fill:#ffffff"
       d="m 13,12 -3,36 c 0,0 0.002,0.187475 0.04492,0.455078 L 13,13 h 38 l 2.955078,35.455078 C 53.997954,48.187475 54,48 54,48 L 51,12 Z"
       id="path9" /></g></svg>
